Numix-GalliumOS/22/status/telegram-attention-panel.svg

<?xml version="1.0" encoding="UTF-8" standalone="no"?>
<svg
   xmlns:dc="http://purl.org/dc/elements/1.1/"
   xmlns:cc="http://creativecommons.org/ns#"
   xmlns:rdf="http://www.w3.org/1999/02/22-rdf-syntax-ns#"
   xmlns:svg="http://www.w3.org/2000/svg"
   xmlns="http://www.w3.org/2000/svg"
   xmlns:sodipodi="http://sodipodi.sourceforge.net/DTD/sodipodi-0.dtd"
   xmlns:inkscape="http://www.inkscape.org/namespaces/inkscape"
   width="22"
   viewBox="0 0 6.208889 6.208889"
   height="22"
   id="svg2"
   version="1.1"
   inkscape:version="0.91 r"
   sodipodi:docname="telegram-attention-panel.svg">
  <metadata
     id="metadata12">
    <rdf:RDF>
      <cc:Work
         rdf:about="">
        <dc:format>image/svg+xml</dc:format>
        <dc:type
           rdf:resource="http://purl.org/dc/dcmitype/StillImage" />
        <dc:title />
      </cc:Work>
    </rdf:RDF>
  </metadata>
  <sodipodi:namedview
     pagecolor="#ffffff"
     bordercolor="#666666"
     borderopacity="1"
     objecttolerance="10"
     gridtolerance="10"
     guidetolerance="10"
     inkscape:pageopacity="0"
     inkscape:pageshadow="2"
     inkscape:window-width="1366"
     inkscape:window-height="747"
     id="namedview10"
     showgrid="true"
     inkscape:zoom="8"
     inkscape:cx="6.2898079"
     inkscape:cy="18.973906"
     inkscape:window-x="0"
     inkscape:window-y="21"
     inkscape:window-maximized="1"
     inkscape:current-layer="svg2">
    <inkscape:grid
       type="xygrid"
       id="grid3815" />
  </sodipodi:namedview>
  <defs
     id="defs4" />
  <path
     style="fill:#54cdee;fill-opacity:1"
     d="m 5.1895404,1.2007106 c -0.041126,-0.00462 -0.086615,0.00339 -0.1322815,0.024252 L 1.0573959,2.7765577 C 0.78439777,2.8867173 0.78614434,3.0401007 1.0077903,3.1083732 L 2.0340745,3.4308183 4.4101816,1.9227672 c 0.1121694,-0.06843 0.215123,-0.031901 0.1306281,0.043544 L 2.6155621,3.7135778 2.560996,4.168308 2.2815513,3.2742806 2.0340745,3.4308183 c 0.1207201,0.3837901 0.2386356,0.7688163 0.3610184,1.1519833 0.038891,0.1027168 0.1374639,0.1305061 0.2243274,0.1333878 0.131089,0.00435 0.350546,-0.1785852 0.3505463,-0.1785852 L 3.3227173,4.2394113 4.2889237,4.9576096 C 4.4798649,5.0635983 4.6178045,5.0084836 4.6653748,4.7790248 L 5.3466246,1.5501638 C 5.3989251,1.3392162 5.3129199,1.2145748 5.1895404,1.2007106 Z M 2.8762669,3.907596 3.0901222,4.0663382 2.8305197,4.2857113 2.8762669,3.907596 Z"
     id="path88"
     inkscape:connector-curvature="0" />
</svg>

<svg xmlns="http://www.w3.org/2000/svg" width="22" viewBox="0 0 6.208889 6.208889" height="22">
 <path d="m 5.19 1.201 c -0.041 -0.005 -0.087 0.003 -0.132 0.024 l -4 1.552 c -0.273 0.11 -0.271 0.264 -0.05 0.332 l 1.026 0.322 2.376 -1.508 c 0.112 -0.068 0.215 -0.032 0.131 0.044 l -1.925 1.747 -0.055 0.455 -0.279 -0.894 -0.247 0.157 c 0.121 0.384 0.239 0.769 0.361 1.152 0.039 0.103 0.137 0.131 0.224 0.133 0.131 0.004 0.351 -0.179 0.351 -0.179 l 0.353 -0.298 0.966 0.718 c 0.191 0.106 0.329 0.051 0.376 -0.179 l 0.681 -3.229 c 0.052 -0.211 -0.034 -0.336 -0.157 -0.349 m -2.313 2.707 0.214 0.159 -0.26 0.219 0.046 -0.378" style="fill:#54cdee;fill-opacity:1"/>
</svg>
